packages/core/src/svgs/om.svg

<svg width="24" height="24" viewBox="0 0 24 24" fill="none" xmlns="http://www.w3.org/2000/svg">
<g clip-path="url(#clip0_31_15346)">
<path d="M0 0H24V24H0V0Z" fill="url(#paint0_linear_31_15346)"/>
<path fill-rule="evenodd" clip-rule="evenodd" d="M3.64293 9.85693L4.0715 10.2684L3.64293 10.6755L3.21436 10.2684L3.64293 9.85693ZM3.28721 11.4212C3.48436 11.6098 3.8015 11.6098 3.99864 11.4212L5.14293 10.2855L5.5715 10.6069V13.7141H5.14293V11.0184L4.42721 11.6912C4.21293 11.8969 3.92578 11.9998 3.64293 11.9998C3.36007 11.9998 3.07293 11.8969 2.85864 11.6912L2.14293 11.0141V13.7141H1.71436V10.6069L2.14293 10.2855L3.28721 11.4212ZM5.78578 13.7141L7.18721 10.2855H7.81721L9.21436 13.7141H8.74293L8.38293 12.8569H6.64293L6.27436 13.7141H5.78578ZM7.48293 10.7141L6.78436 12.4284H8.23293L7.50864 10.7141H7.48293ZM12.0001 12.9812H11.9744L9.93436 10.2855H9.42864V13.7141H9.85721V10.9369H9.88721L12.0001 13.7098L12.4286 13.7141V10.2855H12.0001V12.9812ZM12.8572 10.7098V10.2855H15.8572V10.7141H14.5715V13.7141H14.1429V10.7141H12.8572V10.7098ZM16.2858 10.2855H17.7386C18.4672 10.2855 18.8572 10.6798 18.8572 11.2284V11.2969C18.8572 11.8112 18.6215 11.9484 18.3515 12.0255V12.0555C18.6601 12.0684 18.8572 12.2441 18.8572 12.6812V13.7141H18.4286V12.7326C18.4286 12.4284 18.0944 12.4284 17.8286 12.4284H16.7144V13.7141H16.2858V10.2855ZM18.8572 13.7141L20.2586 10.2855H20.8886L22.2858 13.7141H21.8144L21.4544 12.8569H19.7144L19.3458 13.7141H18.8572ZM16.7144 11.9998H17.6744C18.1029 11.9998 18.4286 11.6698 18.4286 11.3569C18.4286 11.0441 18.1158 10.7141 17.6572 10.7141H16.7144V11.9998ZM19.8558 12.4284L20.5544 10.7141H20.5801L21.3044 12.4284H19.8558Z" fill="#282F2D"/>
</g>
<defs>
<linearGradient id="paint0_linear_31_15346" x1="0" y1="12" x2="24" y2="12" gradientUnits="userSpaceOnUse">
<stop stop-color="#FFB298"/>
<stop offset="1" stop-color="#FE95CE"/>
</linearGradient>
<clipPath id="clip0_31_15346">
<rect width="24" height="24" fill="white"/>
</clipPath>
</defs>
</svg>

<svg xmlns="http://www.w3.org/2000/svg" width="24" height="24" fill="none" viewBox="0 0 24 24"><g clip-path="url(#a)"><path fill="url(#b)" d="M0 0h24v24H0z"/><path fill="#282F2D" fill-rule="evenodd" d="m3.643 9.857.429.411-.43.407-.428-.407zm-.356 1.564a.52.52 0 0 0 .712 0l1.144-1.135.429.32v3.108h-.43v-2.696l-.715.673a1.13 1.13 0 0 1-.784.309c-.283 0-.57-.103-.784-.309l-.716-.677v2.7h-.429v-3.107l.429-.321zm2.499 2.293 1.401-3.428h.63l1.397 3.428h-.471l-.36-.857h-1.74l-.369.857zm1.697-3-.699 1.714h1.449l-.724-1.714zM12 12.981h-.026l-2.04-2.695H9.43v3.428h.428v-2.777h.03L12 13.71l.429.004v-3.428H12zm.857-2.271v-.425h3v.43h-1.285v3h-.43v-3h-1.285zm3.429-.425h1.453c.728 0 1.118.395 1.118.943v.069c0 .514-.235.651-.505.728v.03c.308.013.505.19.505.626v1.033h-.428v-.981c0-.305-.335-.305-.6-.305h-1.115v1.286h-.428zm2.571 3.43 1.402-3.43h.63l1.397 3.43h-.472l-.36-.858h-1.74l-.368.857zM16.714 12h.96c.429 0 .755-.33.755-.643s-.313-.643-.772-.643h-.943zm3.142.428.698-1.714h.026l.724 1.714z" clip-rule="evenodd"/></g><defs><linearGradient id="b" x1="0" x2="24" y1="12" y2="12" gradientUnits="userSpaceOnUse"><stop stop-color="#FFB298"/><stop offset="1" stop-color="#FE95CE"/></linearGradient><clipPath id="a"><path fill="#fff" d="M0 0h24v24H0z"/></clipPath></defs></svg>
